!!key: tele-40-05-Fan-And-01-Flute
!!!COM: Telemann, Georg Philipp
!!!CDT: 1681/03/14-1767/06/25
!!!CBL: Magdeburg
!!!CDL: Hamburg
!!!CNT: German
!!!TWV: 40:5
!!!TWV-genre: 40
!!!TWV-work: 5
!!!OPR: 12 Fantasias for transverse flute without bass
!!!OTL: Fantasia 4
!!!OMD: Andante
!!!OMV: 1
!!!ODT: ca. 1732–1733
!!!AST: Late Baroque
!!!AGN: Fantasia
!!!AMT: Simple quadruple
!!!AIN: Transverse flute
**kern	**dynam
*ICww	*
*Iflt	*
*clefG2	*
*k[b-e-]	*
*B-:	*
*M4/4	*
*met(c)	*
16.ffL	.
32b-J	.
=1	=1
8ggL	.
8gg	.
8e-	.
8ggJ	.
16.ggLL	.
32ee-Jk	.
8ffJ	.
8r	.
16.ddL	.
32b-J	.
=2	=2
8ee-L	.
8ee-	.
8f	.
8ee-J	.
16.ee-LL	.
32ccJk	.
8ddJ	.
8r	.
16.ddL	.
32ee-J	.
=3	=3
8f#XL	.
8aaJ	.
16dLL	.
(16ee-	.
16dd	.
16cc)JJ	.
(16b-LL	.
16g)	.
(16a	.
16f#)JJ	.
8gL	.
16.ggL	.
32bb-JJk	.
!!LO:LB:g=original
=4	=4
8cc#XL	.
8eeenJ	.
16aLL	.
(16bb-	.
16aa	.
16gg)JJ	.
(16ffLL	.
16dd)	.
(16een	.
16cc#)JJ	.
16ddLL	.
16bn	.
16ccn	.
16ddJJ	.
=5	=5
16e-XLL	.
16ff#X	.
16gg	.
16ccJJ	.
16gLL	.
(16dd	.
16cc	.
16bn)JJ	.
(8bL	.
8cc)J	.
8r	.
16.ccL	.
32ee-J	.
=6	=6
16aLL	.
16een	.
16ffn	.
16gJJ	.
16fLL	.
(16ee-	.
16dd	.
16cc)JJ	.
16ddLL	.
16ccJ	.
8b-XJ	.
8r	.
16.ffL	.
32b-J	.
!!LO:LB:g=original
=7	=7
16ggLL	.
16e-	.
16d	.
16ffJJ	.
16ee-LL	.
16g	.
16f	.
16ddJJ	.
16e-LL	.
16dd	.
16cc	.
16ggJJ	.
16ee-LL	.
16dd	.
16cc	.
16b-JJ	.
=8	=8
16aLL	.
16gJ	.
8fJ	.
8r	.
16.bb-L	.
32b-J	.
16b-LL	.
32bb-L	.
32aaJ	.
16bb-	.
16dJJ	.
8e-L	.
16.bb-L	.
32b-JJk	.
=9	=9
16b-LL	.
32bb-L	.
32aaJ	.
16bb-	.
16fJJ	.
8gL	.
16.bb-L	.
32b-JJk	.
16ccLL	.
16e-	.
16f	.
16ddJJ	.
16ee-LL	.
16g	.
16a	.
16ffJJ	.
!!LO:LB:g=original
=10	=10
(16ee-LL	.
16dd)	.
(16cc	.
16b-)JJ	.
16fLL	.
16b-	.
16e-	.
16aJJ	.
(32dLLL	.
32fJJ	.
8.b-)J	.
8r	.
16.bb-L	p
32b-J	.
=11	=11
16b-LL	.
32bb-L	.
32aaJ	.
16bb-	.
16dJJ	.
8e-L	.
16.bb-L	.
32b-JJk	.
16b-LL	.
32bb-L	.
32aaJ	.
16bb-	.
16fJJ	.
8gL	.
16.bb-L	.
32b-JJk	.
=12	=12
16ccLL	f
16e-	.
16f	.
16ddJJ	.
16ee-LL	.
16g	.
16a	.
16ffJJ	.
(16ee-LL	.
16dd)	.
(16cc	.
16b-)JJ	.
16fLL	.
16b-	.
16e-	.
16aJJ	.
=13	=13
(32dLLL	.
32fJJ	.
8.b-)J	.
4r	.
4r	.
8r	.
==	==
*-	*-
!!!RTL1: G. PH. Telemann: Twelve Fantasias for Flute without Bass TWV 40:2-13
!!!RPN1: D'Arcangelo, Rita
!!!RMM1: Da Vinci Classics
!!!RC#1: DV-C00440
!!!RRD1: 2022
!!!RLC1: Andreaskirche, Berlin, Germany
!!!RDT1: 16 September 2020, 17 September 2020
!!!RT#1: 4
!!!RTL2: The Telemann Files: 12 Fantasies for Solo Flute
!!!RPN2: Choi, Jasmine
!!!RMM2: Austrian Gramophone
!!!RC#2: AG0001
!!!RRD2: February 2015
!!!RLC2: LeFrak Hall, Queens, USA
!!!RDT2: 9 June 2014, 10 June 2014
!!!RT#2: 4
!!!RTL3: Georg Philipp Telemann: Twelve Fantasies for Flute
!!!RPN3: Robertello, Thomas
!!!RMM3: Delos
!!!RC#3: DE3396
!!!RRD3: 1 June 2009
!!!RLC3: Clear Creek Recording, Keene, California
!!!RDT3: Unknown
!!!RT#3: 4
